X:372
T:Red Wing - Blaine Sprouse
C:
N:Transcribed by Vance Henry
R:bluegrass
L:1/8
Q:1/4=220
M:4/4
K:G
z2 D2 E2 F2 | "G"GF GA BA Bc | d2 z3c B2 | "C"c2 de g2 [g2e2] | "G"[g6d6] AB | 
"D"cd cB AF Ad | "G"Bc BA G3B | "A"AG E2 F2 G2 | "D"AB =F^F EF DF | "G"G/F/E DG BA Bc | 
d2 z3c B2 | "C"c2 de g2 [g2e2] | "G"[g6d6] AB | "D"cd cB AF Ad | "G"Bd BA G3B | 
"A"AG EG "D"FD EF | "G"GA Bd gf =fg | "C"d"B Part"e2g ed cA | ce ga g/f/=f e2 | 
"G"[g4d4] [g4B4] | z2 [g2e2] [g2^d2] [g2e2] | "D"[f^c][f3d3] [d4F4] | z2 ef ed Bc | 
"G"d^c =cd BG EF | "G7"GF =FG EG cd | "C"de2g ed cA | ce ga g/f/=f e2 | "G"[g4d4] [g4B4] | 
z2 [g2e2] [g2^d2] [g2e2] | "D"[f^c][f3d3] [d4F4] | zB c2 B/c/B AF | "G"G2 zE DC B,A, | 
G,4 z2 DE | "2nd Variation "GD G,B, DG Bc | d2 z3c B2 | "C"c2 de g2 [g2e2] | "G"[g6d6] AB | 
"D"cB cd cB Ac | "G"BG Bd BA GB | "A"AG E2 F2 G2 | "D"AB =F^F EF DF | "G"G/F/E DG BA Bc | 
d2 z3c B2 | "C"c2 de g2 [g2e2] | "G"[g6d6] AB | "D"cB cd cB Ac | "G"BG Bd BA GB | 
"A"AG ED "D"FE D2 | "G"[G4B,4] gf =fg | "C"de2g ed cA | ce ga g/f/=f e2 | "G"[g4d4] [g4B4] | 
z2 eg ed Bc | "D"d^c =cd B/c/B AG | FD FE DF EF | "G"GD EG BG Bc | "G7"dc Bd ge g2 | 
"C"de2g ed cA | ce ga g/f/=f e2 | "G"[g4d4] [g4B4] | z2 eg ed B2 | "D"[f^c][f3d3] [d4F4] | 
zB c2 B/c/B AF | "G"G2 zE DC B,A, | G,B, DF G4 | 


